X: 55
T: Piano Sonata no. 16 in G major, Adagio grazioso
C: Ludwig van Beethoven
%%abc-version 2.0
%%abcx-abcm2ps-target-version 5.9.1 (29 Sep 2008)
%%abc-creator hum2abc beta
%%abcx-conversion-date 2021/01/11 11:42:12
%%abc-edited-by Craig Stuart Sapp
%%abc-edited-by Craig Stuart Sapp
%%abcx-initial-encoding-date 2008/11/10/
%%gracespace 0 6 6
%%humdrum-veritas 4144144649
%%humdrum-veritas-data 3642813991
%%linebreak <none>
%%barnumbers 0
L: 1/16
M: 9/8
Q: "Adagio grazioso" 1/8=126
%%staves {1 2}
V: 1 clef=treble
V: 2 clef=bass
K: C
[V:1] !trill!c8>{/Bc}e8-e3/c/ | 
[V:2] !wedge!E,2!wedge!G,2!wedge!C2 !wedge!E,2!wedge!G,2!wedge!C2 !wedge!E,2!wedge!G,2!wedge!C2 & C,6z4z2z4z2 | 
[V:1] G6-G4.^F.G .^G.A._B.=B.c.^c | 
[V:2] !wedge!E,2!wedge!G,2!wedge!C2 !wedge!E,2!wedge!G,2!wedge!C2 !wedge!E,2!wedge!G,2!wedge!C2 & C,4z2z4z2z4z2 | 
[V:1] !trill!d8>{/^cd}f8-f3/d/ | 
[V:2] !wedge!F,2!wedge!G,2D2 !wedge!F,2!wedge!G,2!wedge!D2 !wedge!F,2!wedge!G,2!wedge!D2 & B,,6z4z2z4z2 | 
[V:1] G6-G4.G.A ._B.=B.c.^c.d.^d | 
[V:2] !wedge!F,2!wedge!G,2!wedge!D2 !wedge!F,2!wedge!G,2!wedge!D2 !wedge!F,2!wedge!G,2!wedge!B,2 & B,,4z2z4z2G,,4z2 | 
[V:1] {/E}e6{/F}f6{/G}g6 | 
[V:2] !wedge![C,2E,2]!wedge!G,2!wedge!C2 !wedge!A,,2!wedge!A,2!wedge!C2 !wedge!E,,2!wedge![E,2G,2]!wedge![G,2C2] | 
[V:1] .^g2a4-a2a4-a2{/=g}fefd | 
[V:2] !wedge!F,,2!wedge![F,2A,2]!wedge![A,2C2] !wedge!F,,2!wedge![F,2A,2]!wedge![A,2^C2] !wedge!F,,2!wedge![F,2A,2]!wedge![A,2D2] | 
[V:1] c2{/d}c>Bc>eG6-G/A/G/^F/ (3:2:6G/A/B/c/d/e/ =fz/B/ | 
[V:2] !wedge!G,,2!wedge![G,2C2]!wedge![C2E2] !wedge!G,,2!wedge![G,2C2]!wedge![C2E2] !wedge!G,,2!wedge![G,2D2]!wedge![D2=F2] | 
[V:1] [F4d4]>[E4c4]G2^F2 =F2E2D2 | 
[V:2] !wedge!C,2!wedge!G,2!wedge!B,2 !wedge![C,2C2]G,2^F,2 =F,2E,2D,2 | 
[V:1] C2[G,2C2E2][G,2C2E2] [G,2C2E2][G,2C2E2][G,2C2E2] [G,2C2E2][G,2C2E2][G,2C2E2] | 
[V:2] {/C,,}!trill!C,8>{/B,,C,}E,8-E,3/C,/ | 
[V:1] z/ C/E/D/ F/E/G/F/ A/G/B/A/ c/B/d/c/ (3:2:24e/d/f/e/g/f/ a/g/b/a/c'/b/ d'/c'/e'/d'/c'/b/ a/g/f/e/d/c/ (7:4:7B/A/G/F/E/D/C/ | 
[V:2] G,,2 G,2[C2E2] [C2E2][C2E2][C2E2] [C2E2][C2E2][C2E2] & x2G,4-G,6-G,6 | 
[V:1] B,2[G,2B,2F2][G,2B,2F2] [G,2B,2F2][G,2B,2F2][G,2B,2F2] [G,2B,2D2F2][G,2B,2D2F2][G,2B,2D2F2] | 
[V:2] {/G,,}!trill!D,8>{/^C,D,}F,8-F,3/D,/ | 
[V:1] z/ B,/D/C/ E/D/F/E/ G/F/A/G/ B/A/c/B/ (3:2:18d/c/e/d/f/e/ g/f/a/g/b/a/ c'/b/d'/c'/e'/d'/ f'//e'//d'//c'//b//a//g//b// d'//c'//b//a//g//f//e//d// | 
[V:2] G,,2 G,2D2 [D2F2][D2F2][D2F2] [D2F2][D2F2][D2F2] & x2G,4-G,6-G,6 | 
[V:1] ^d2e4{/e}c'6-c'.b.a.g.^f.e | 
[V:2] !wedge!C,2!wedge![G,2C2]!wedge![C2E2] !wedge!A,,2!wedge![A,2C2]!wedge![C2E2] !wedge!G,,2!wedge![G,2C2]!wedge![C2E2] | 
[V:1] e2=d4-d.^c.d.c.d.c .d.c.d.e.^f.g | 
[V:2] !wedge!^F,,2!wedge![A,2C2]!wedge![C2D2] !wedge!F,,2!wedge![A,2C2]!wedge![C2D2] !wedge!G,,2!wedge![G,2B,2]!wedge![B,2D2] | 
[V:1] .A.^G.A.B (3.c.d.e !accent!e2D4-DE/D/^CD.E.^F | 
[V:2] !wedge!C,,2!wedge![C,2E,2]!wedge![E,2A,2] !wedge!D,,2!wedge![D,2G,2]!wedge![G,2B,2] !wedge!D,,2!wedge![D,2A,2]!wedge![A,2C2] | 
[V:1] {/^F}A4>G4.G2.G2 G2F2G2 | 
[V:2] !wedge!G,,2!wedge![G,2C2]!wedge![C2D2] !wedge![G,2B,2] z2 z2z4z2[K:clef=treble] | 
[V:1] x8>x8[_B2^c2] & G2^F2G2 G2F2G2 G2F2G2 | 
[V:2] z4_E2 E2D2E2 E2D2E2 | 
[V:1] [_B6^c6]-[B4c4][B2c2] [B2c2]d2e2 & G2^F2G2 G2F2G2 G2A2A2 | 
[V:2] =E2^D2E2 E2D2E2 E2=F2^C2[K:clef=bass] & A,12A,6 | 
[V:1] e4>=f4.F2.F2 F2E2F2 & A4>-A4x4x4x2 | 
[V:2] ^C4>D4 z2 z2z4z2[K:clef=treble] & D,4>-D,4 z2 z2z4z2 | 
[V:1] x8>x8[_A2=B2] & F2E2F2 F2E2F2 F2E2F2 | 
[V:2] z4_D2 D2C2D2 D2C2D2 | 
[V:1] [_A6B6]-[A4B4][A2B2] [A2B2]c2d2 & F2E2F2 F2E2F2 F2G2G2 | 
[V:2] =D2^C2D2 D2C2D2 D2E2B,2[K:clef=bass] & G,12G,6 | 
[V:1] e6d6c6 & G2G2^G2 z2 G2A2 z2 A2D2 | 
[V:2] C6F,6^F,6 | 
[V:1] B4z2 z2 A2B2c4^F2 & D4z2G4F2 E2D2C2 | 
[V:2] G,,2G,2G,2 G,2G,2G,2 G,2G,2G,2 & G,,12-G,,6 | 
[V:1] A2G2 z2 B2A2!trill!B2 d2c2^F2 & B,4z2G4=F2 E2D2C2 | 
[V:2] G,,2G,2G,2 G,2G,2G,2 G,2G,2G,2 & G,,12-G,,6 | 
[V:1] G2 z dc^F G2 z dc^F G2 z dc^F & B,2 z FEC B,2 z =FEC B,2 z =FEC | 
[V:2] G,,2G,4-[D,2G,2]G,4-G,2G,4 & x2 G,B,,C,_E, x2 G,B,,C,A,, x2 G,B,,C,_E, | 
[V:1] !fermata!!trill![B,12G12-]G/^F/G/D/E/F/G/A/B/A/G/A/B/c/d/c/B/c/d/e/^f/g/f/e/d/e/f/g/a/ b/a/g/a/b/c'/d'/e'/=f'/e'/d'/^c'/ e'/d'/=c'/b/a/c'/b/d'/c'/b/a/g/^g/ .b2.a2.=g2.=f2.e2.d2 | 
[V:2] !fermata![G,,8D,8G,8]>z8z2 x2x4x2 x/x4x2x4x2 x/x12 | 
[V:1] !trill!c8>{/Bc}e8-e3/c/ | 
[V:2] !wedge!E,2!wedge!G,2!wedge!C2 !wedge!E,2!wedge!G,2C2 !wedge!E,2!wedge!G,2!wedge!C2 & C,6z4z2z4z2 | 
[V:1] G6-G4.^F.G .^G.A._B.=B.c.^c | 
[V:2] !wedge!E,2!wedge!G,2C2 !wedge!E,2!wedge!G,2!wedge!C2 !wedge!E,2!wedge!G,2!wedge!C2 & C,6z4z2z4z2 | 
[V:1] !trill!d8>{/^cd}g8-g/>f/e//d//=c//B// | 
[V:2] !wedge!F,2!wedge!G,2!wedge!D2 !wedge!F,2!wedge!G,2!wedge!D2 !wedge!F,2!wedge!G,2D2 & B,,6z4z2z4z2 | 
[V:1] .A2G4-G4.G.A ._B.=B.c.^c.d.^d | 
[V:2] !wedge!F,2!wedge!G,2D2 !wedge!F,2!wedge!G,2D2 !wedge!F,2!wedge!G,2B,2 & B,,6z4z2G,,6 | 
[V:1] (5:4:5e/f/e/^d/e/.c'2 z2 (5:4:5f/g/f/e/f/.c'2 z2 (5:4:5g/a/g/^f/g/.c'2 z2 | 
[V:2] !wedge![C,2E,2]!wedge!G,2!wedge!C2 !wedge!A,,2!wedge!A,2!wedge!C2 E,,2!wedge![E,2G,2]!wedge![G,2C2] | 
[V:1] .^g2a4-a2a4-a2{/=g}fefd | 
[V:2] .F,,2!wedge![F,2A,2]!wedge![A,2C2] !wedge!F,,2!wedge![F,2A,2]!wedge![A,2^C2] !wedge!F,,2!wedge![F,2A,2]!wedge![A,2D2] | 
[V:1] c/d/c/B/.c.d.e.f .g.a.b.c'.d'.e' {/d'e'} .f'2 z2 .B2 | 
[V:2] !wedge!G,,2!wedge![G,2C2]!wedge![C2E2] !wedge!G,,2!wedge![G,2C2]!wedge![C2E2] !wedge!G,,2!wedge![G,2D2][D2F2] | 
[V:1] [F4d4]>[E4c4]G2_E2[K:clef=bass] C2G,2_E,2 | 
[V:2] !wedge!C,2!wedge!G,2!wedge!B,2 !wedge![C,2C2]G,2_E,2 C,2G,,2_E,,2 | 
[V:1] C,4z2z4z2z4z2[K:clef=treble] | 
[V:2] C,,_E,,G,,.G,,.G,,.G,, C,,E,,G,,.G,,.G,,.G,, C,,E,,G,,.G,,.G,,.G,, | 
[V:1] [_E6_e6][C6c6][_A,6_A6] | 
[V:2] C,,_E,,_A,,A,,.A,,.A,, C,,E,,A,,.A,,.A,,.A,, C,,E,,A,,.A,,.A,,.A,, | 
[V:1] [F,8F8]>-[F,8F8]Ff | 
[V:2] _D,,F,,_A,,.A,,.A,,.A,, D,,F,,A,,.A,,.A,,.A,, D,,F,,=A,,.A,,.A,,.A,, | 
[V:1] [F4f4]-[Ff][_E_e] [E2e2][_D2_d2]>[C2c2] [C2c2][_B,3_B3][_A,_A] | 
[V:2] _D,,F,,_B,,.B,,.B,,.B,, D,,F,,B,,.B,,.B,,.B,, =D,,F,,B,,.B,,.B,,.B,, | 
[V:1] [G,6G6][_D6G6_d6][C6_A6c6] | 
[V:2] _E,,_B,,_D,.D,.D,.D, =E,,B,,=E,.E,.E,.E, F,,_A,,F,.F,.F,.F, | 
[V:1] [_B,6_D6_B6][_A,6C6_A6][G,6_B,6D6_E6] | 
[V:2] _D,,_D,F,.F,.F,.F, _E,,C,_E,.E,.E,.E, E,,_B,,_D,.D,.D,.D, | 
[V:1] [_A,C_E].[CE].[CE].[CE].[CE].[CE] .[CE].[CE].[CE].[CE].[CE].[CE] .[CE].[CE].[CE].[CE].[CE].[CE] | 
[V:2] [_A,,,_A,,]._A,.A,.A,.A,.A, .A,.A,.A,.A,.A,.A, .A,.A,.A,.A,.A,.A, | 
[V:1] {/c'/_d'/} ._e'.d'.c'._b._a.g .f._e._d.c._B._A .G.A.B.A.c.A | 
[V:2] .[_A,C_E].[A,CE].[A,CE].[A,CE].[A,CE].[A,CE] .[A,CE].[A,CE].[A,CE].[A,CE].[A,CE].[A,CE] .[A,CE].[A,CE].[A,CE].[A,CE].[A,CE].[A,CE] | 
[V:1] .G.[_B,_D_E].[B,DE].[B,DE].[B,DE].[B,DE] .[B,DE].[B,DE].[B,DE].[B,DE].[B,DE].[B,DE] .[B,DE].[B,DE].[B,DE].[B,DE].[B,DE].[B,DE] | 
[V:2] .[_B,_D_E] z z2 z2z4z2z4z2 | 
[V:1] .[_D_E].[DE].[DE].[DE].[DE].[DE] .[DE].[DE].[DE].[DE].[DE].[DE] .[_B,DE].[B,DE].[B,DE].[B,DE].[B,DE].[B,DE] | 
[V:2] {/G,_A,} ._B,.A,.G,.F,._E,._D, .C,._B,,._A,,.G,,.F,,._E,, .=D,,.E,,.F,,.E,,.G,,.E,, | 
[V:1] .[C_E].[CE].[CE].[CE].[CE].[CE] .[CE].[CE].[CE].[CE].[CE].[CE] .[C=E].[CE].[CE][CE].[CE].[CE] | 
[V:2] .[_A,,,_A,,]._A,.A,.A,.A,.A, .A,.A,.A,.A,.A,.A, .A,.A,.A,.A,.A,.A, | 
[V:1] {/_a/_b/} .c'.b.a.g.f._e ._d.c._B._A.G.F .=E.F.G.F.A.F | 
[V:2] .[F,_A,CF].[F,A,C].[F,A,C].[F,A,C].[F,A,C].[F,A,C] .[F,A,C].[F,A,C].[F,A,C].[F,A,C].[F,A,C].[F,A,C] .[F,A,C].[F,A,C].[F,A,C].[F,A,C].[F,A,C].[F,A,C] | 
[V:1] .=E.[G,_B,C].[G,B,C].[G,B,C].[G,B,C].[G,B,C] .[G,B,C].[G,B,C].[G,B,C].[G,B,C].[G,B,C].[G,B,C] .[G,B,C].[G,B,C].[G,B,C].[G,B,C].[G,B,C].[G,B,C] | 
[V:2] .[G,_B,C] z z2 z2z4z2z4z2 | 
[V:1] .[_B,C].[B,C].[B,C].[B,C].[B,C].[B,C] .[B,C].[B,C].[B,C].[B,C].[B,C].[B,C] .[G,B,C].[G,B,C].[G,B,C].[G,B,C].[G,B,C].[G,B,C] | 
[V:2] {/=E,/F,/} .G,.F,.E,._D,.C,._B,, ._A,,.G,,.F,,.E,,._D,,.C,, .=B,,,.C,,.D,,.C,,.E,,.C,, | 
[V:1] .[_A,C].[A,_D].[A,D].[A,D].[A,D].[A,D] _af_d.d.d.dx6 | 
[V:2] x12.[G,C].[G,C].[G,C].[G,C].[G,C].[G,C] & .[F,,F,].F,.F,.F,.F,.F, .[F,_A,_D].[F,A,D].[F,A,D].[F,A,D].[F,A,D].[F,A,D] _E,E,E,E,E,E, | 
[V:1] x6fdB.B.B.Bx6 | 
[V:2] .[F,=B,].[F,B,].[F,B,].[F,B,].[F,B,].[F,B,]x6.[_E,_A,].[E,A,].[E,A,].[E,A,].[E,A,].[E,A,] & .[=D,,=D,].D,.D,.D,.D,.D, .[D,F,B,].[D,F,B,].[D,F,B,].[D,F,B,].[D,F,B,].[D,F,B,] .C,.C,.C,.C,.C,.C, | 
[V:1] x6d'bf.f.f.f c'g_e.e.e.e | 
[V:2] .[D,G,].[D,G,].[D,G,].[D,G,].[D,G,].[D,G,]x12 & .[B,,,B,,].B,,.B,,.B,,.B,,.B,, .[B,,D,G,].[B,,D,G,].[B,,D,G,].[B,,D,G,].[B,,D,G,].[B,,D,G,] .[C,_E,G,].[C,E,G,].[C,E,G,].[C,E,G,].[C,E,G,].[C,E,G,] | 
[V:1] _af.[F_A_d].[FAd].[FAd].[FAd] af.[FAd].[FAd].[FAd].[FAd] =a_e.[_E=Ac].[EAc].[EAc].[EAc] | 
[V:2] .F,,.[F,_A,_D].[F,A,D].[F,A,D].[F,A,D].[F,A,D] .F,,.[F,A,D].[F,A,D].[F,A,D].[F,A,D].[F,A,D] .^F,,.[^F,=A,C].[F,A,C].[F,A,C].[F,A,C].[F,A,C] | 
[V:1] [D4G4B4]z4<f4-f2_e4 & x4>z4 d2B2c4=A2 | 
[V:2] .G,,.B,,.D,.G,.B,.D[K:clef=treble] G2^F2G2_A4F2[K:clef=bass] | 
[V:1] d4z4<f4-f2_e4 & B4z2 z2 d2B2c4=A2- | 
[V:2] .G,,.B,,.D,.G,.B,.D[K:clef=treble] G2^F2G2_A4F2- | 
[V:1] d6_d6c6 & A2B2_A2- A2_B2G2- G2=A2^F2- | 
[V:2] F4=F2-F4E2-E4_E2 & G,6G,6G,6 | 
[V:1] =B4z2 z2B4z2c4 & F2_A2=F2 z2 G2F2 z2 G2_E2 | 
[V:2] [G,4D4]z2[K:clef=bass][G,4D4]z2[G,4C4]z2 | 
[V:1] z2[_E4^F4][K:clef=bass]z2C4z2F,4 & z2 C2A,2 z2 [^F,2A,2]_E,2 z2 [E,2C,2]A,,2 | 
[V:2] [G,,4G,4]z2[G,,,4G,,4]z2[G,,,4G,,4]z2 | 
[V:1] [B,,4D,4G,4]z2 z2 z .[B,,G,].[C,A,].[D,B,]!sfz![_E,6C6] | 
[V:2] G,,2G,,2G,,2 G,,2G,,2G,,2 G,,2G,,2G,,2 & G,,,4z2z4z2z4^F,,,2 | 
[V:1] [D,4B,4]>z4 z .[G,B,].[A,C].[B,D]!sfz![C6_E6] | 
[V:2] G,,2G,,2G,,2 G,,2G,,2G,,2 G,,2G,,2G,,2 & G,,,4z2z4z2z4^F,,,2 | 
[V:1] [B,4D4]z2[K:clef=treble] z2 z .[B,G].[CA].[DB][_E6c6] | 
[V:2] G,,2G,,2G,,2 G,,2G,,2G,,2z4^F,2 & G,,,4z2z4z2 G,,2G,,2G,,2 | 
[V:1] [D6B6]!sfz![c6_e6][B6d6] & x6z4^F2G6 | 
[V:2] G,4x2x12 & G,,2G,2G,2 G,2G,2G,2 G,2G,2G,2 | 
[V:1] [c6e6][B6d6]!sfz![c6e6a6] & z4^F4<G4z4F2 | 
[V:2] G,2G,2G,2 G,2G,2G,2 G,2G,2G,2 | 
[V:1] [B6d6g6][c6=f6]x6 & G4z4<A4[G6B6=e6] | 
[V:2] G,2G,2G,2 G,2 G,,2G,,2 G,,2G,,2G,,2 | 
[V:1] [F6A6d6][E6G6c6].[FB].[G^c].[Ad].[Ge].[Ff].[FB] & x12.D.E.F.^C.D.D | 
[V:2] G,,2A,,B,,C,D, .E,.F,.G,.A,.B,.Cx6 & G,,6-G,,4z2G,6 | 
[V:1] !trill!c8>e8-e3/c/ & E2x4x6{/B/c/}x6 | 
[V:2] !wedge![C,E,]!wedge![E,G,]!wedge![G,C]!wedge![E,G,]!wedge![C,E,]!wedge![E,G,] !wedge![C,E,]!wedge![E,G,]!wedge![G,C]!wedge![E,G,]!wedge![C,E,]!wedge![E,G,] !wedge![C,E,]!wedge![E,G,]!wedge![G,C]!wedge![E,G,]!wedge![C,E,]!wedge![E,G,] | 
[V:1] G6-G4.^F.G .^G.A._B.=B.c.^c | 
[V:2] !wedge![C,E,]!wedge![E,G,]!wedge![G,C]!wedge![E,G,]!wedge![C,E,]!wedge![E,G,] !wedge![C,E,]!wedge![E,G,]!wedge![G,C]!wedge![E,G,]!wedge![C,E,]!wedge![E,G,] !wedge![C,E,]!wedge![E,G,]!wedge![G,C]!wedge![E,G,]!wedge![C,E,]!wedge![E,G,] | 
[V:1] !trill!d8>{/^c/d/}f8-f3/d/ | 
[V:2] !wedge![B,,F,]!wedge![F,G,]!wedge![G,D]!wedge![F,G,]!wedge![B,,F,]!wedge![F,G,] !wedge![B,,F,]!wedge![F,G,]!wedge![G,D]!wedge![F,G,]!wedge![B,,F,]!wedge![F,G,] !wedge![B,,F,]!wedge![F,G,]!wedge![G,D]!wedge![F,G,]!wedge![B,,F,]!wedge![F,G,] | 
[V:1] G6-G4.G.A ._B.=B.c.^c.d^d | 
[V:2] !wedge![B,,F,]!wedge![F,G,]!wedge![G,D]!wedge![F,G,]!wedge![B,,F,]!wedge![F,G,] !wedge![B,,F,]!wedge![F,G,]!wedge![G,D]!wedge![F,G,]!wedge![B,,F,]!wedge![F,G,] !wedge![G,,F,]!wedge![F,G,]!wedge![G,B,]!wedge![F,G,]!wedge![G,,F,]!wedge![F,G,] | 
[V:1] {/E}e6{/F}f6{/G}g6 | 
[V:2] !wedge!C,!wedge!G,!wedge!C!wedge!G,!wedge!E,!wedge!C, !wedge!A,,!wedge!A,!wedge!C!wedge!A,!wedge!F,C, !wedge!E,,!wedge!G,!wedge!C!wedge!G,!wedge!E,!wedge!C, | 
[V:1] .^g2a4-a2.!sfz!a4-a2{/=g}fefd | 
[V:2] !wedge!F,,!wedge![F,A,]!wedge![A,C]!wedge![F,A,].[A,C]!wedge![F,A,] !wedge!F,,!wedge![F,A,]!wedge![A,^C]!wedge![F,A,]!wedge![A,C]!wedge![F,A,] !wedge!F,,!wedge![F,A,]!wedge![A,D]!wedge![F,A,]!wedge![A,D]!wedge![F,A,] | 
[V:1] .c2{/d}c>Bc>eG6-G/A/G/^F/ (3:2:6G/A/B/ c/d/e/ .=fz/B/ | 
[V:2] !wedge!G,,!wedge![G,C]!wedge![CE]!wedge![G,C]!wedge![CE]!wedge![G,C] !wedge!G,,!wedge![G,C]!wedge![CE]!wedge![G,C]!wedge![CE]!wedge![G,C] !wedge!G,,!wedge![G,D]!wedge![DF]!wedge![G,D]!wedge![DF]!wedge![G,D] | 
[V:1] [F6d6][Ec]G^FGAG =FEGFED | 
[V:2] !wedge!C,!wedge!G,!wedge!B,!wedge!G,!wedge!B,G, !wedge![C,C]G,^F,G,A,G, =F,E,G,F,E,D, | 
[V:1] !wedge!C!wedge![G,C]!wedge![CE]!wedge![G,C]!wedge![CE]!wedge![G,C] !wedge![CE]!wedge![G,C]!wedge![CE]!wedge![G,C]!wedge![CE]!wedge![G,C] !wedge![CE]!wedge![G,C]!wedge![CE]!wedge![G,C]!wedge![CE]!wedge![G,C] | 
[V:2] {/C,,}!trill!C,8>{/B,,C,}E,8-E,3/C,/ | 
[V:1] z/ B/d/c/ e/d/f/e/ g/f/a/g/ b/a/c'/b/ d'/c'/e'/d'/ c'/b/a/g/ ^f/g/a/g/ =f/e/d/c/ B/c/e/c/ | 
[V:2] G,,!wedge![G,C]!wedge![CE]!wedge![G,C]!wedge![CE]!wedge![G,C] !wedge![CE]!wedge![G,C]!wedge![CE]!wedge![G,C]!wedge![CE]!wedge![G,C] !wedge![CE]!wedge![G,C]!wedge![CE]!wedge![G,C]!wedge![CE]!wedge![G,C] | 
[V:1] B[G,B,][B,F][G,B,][B,F][G,B,] [B,F][G,B,][B,F][G,B,][B,F][G,B,] [B,F][G,B,][B,F][G,B,][B,F][G,B,] | 
[V:2] {/A,,}!trill!D,8>{/^C,/D,/}F,8-F,3/D,/ | 
[V:1] z/ B/d/c/ e/d/f/e/ g/f/a/g/ b/a/c'/b/ d'/^c'/e'/d'/ f'/e'/d'/=c'/ b/c'/^c'/d'/ =c'/b/a/g/ ^f/g/a/=f/ | 
[V:2] .G,,.[G,D].[DF].[G,D].[DF].[G,D] .[DF].[G,D].[DF].[G,D].[DF].[G,D] .[DF].[G,D].[DF].[G,D].[DF].[G,D] | 
[V:1] ^d2e4{/e}c'6-.c'.b.a.g.^f.e | 
[V:2] C,[G,C][CE][G,C][CE][G,C] A,,[A,C][CE][A,C][CE][A,C] G,,[G,C][CE][G,C][CE][G,C] | 
[V:1] .e2d4-dd2d2d (3:2:6.d.^c.d ._e.=e.=f .^f.g | 
[V:2] ^F,,[A,C][CD][A,C][CD][A,C] F,,[A,C][CD][A,C][CD][A,C] G,,[G,B,][B,D][G,B,][B,D][G,B,] | 
[V:1] (3.A.^G.A ._B/.=B/c/.^c/ (3.d.^d.e e2=D4-D(3:2:9E/D/^C/ D/E/^F/ G/A/B/ .=cz/^F/ | 
[V:2] C,,[C,E,][E,A,][C,E,][E,A,][C,E,] D,,[D,G,][G,B,][D,G,][G,B,][D,G,] D,,[D,A,][A,C][D,A,][A,C][D,A,] | 
[V:1] [C4A4]>[B,4G4].G2.G2 G2^F2G2 | 
[V:2] G,,D,^F,D,F,D, [G,,2G,2] z2 z2z4z2 | 
[V:1] G2^F2.G.G z GzFzGx4z [_B^c] & x12z GzFzG | 
[V:2] z4[K:clef=treble]_E2 E2D2E2 E2D2E2 | 
[V:1] .[_B6^c6]-[B4c4]-[Bc][Bc] z [Bc] z d z e & z Gz^FzG z GzFzG z G z A z A | 
[V:2] =E2^D2E2 E2D2E2 E2=F2^C2[K:clef=bass] & A,12A,6 | 
[V:1] [A4-e4]>[A4f4].F2.F2 F2E2F2 | 
[V:2] [D,4-^C4]>[D,4D4] z2 z2z4z2[K:clef=treble] | 
[V:1] F2E2.F.F z FzEzFx4x [_AB] & x12z FzEzF | 
[V:2] z4_D2 D2C2D2 D2C2D2 | 
[V:1] [_A6B6]-[A4B4]-[AB][AB] z [AB] z c z d & z F-zEzF z F-zEzF z F z G z G | 
[V:2] =D2^C2D2 D2C2D2 D2E2B,2[K:clef=bass] & G,12G,6 | 
[V:1] e6d6c6 & G^FFGG^G z GGABA z AADAD | 
[V:2] C6F,6^F,6 | 
[V:1] B4z2 z2 A2B2c4^F2 & DG2G2G- GG2G2=F- FE2D2C | 
[V:2] G,,2G,2G,2 G,2G,2G,2 G,2G,2G,2 & G,,12-G,,6 | 
[V:1] A2G z z2 B2A2B2 d2c2^F2 & B,DB,G2G- GG2G2=F- FE2D2C | 
[V:2] G,,2 G,2G,2 G,2G,2G,2 G,2G,2G,2 & G,,12-G,,6 | 
[V:1] G2 z dc^F G2 z dc^F G2 z dc^F & B,2=F2EC B,2=F2EC B,2=F2EC | 
[V:2] G,,G,-G,4G,,G,-G,4G,,G,-G,4 & x2 z B,,C,_E, D,2 z B,,C,A,, x2 z B,,C,=E, | 
[V:1] !fermata!!trill![B,12G12-]G/^F/G/D/E/F/G/A/G/F/G/A/B/c/B/A/B/c/d/e/d/^c/d/e/^f/ [|] 
[V:2] !fermata![G,,12D,12G,12]!fermata!z3/ !fermata!z2 x/ x2x4x2 x/ [|] 
[V:1] g/a/g/^f/g/a/b/c'/b/a/b/c'/d'/c'/b/a/ [|] 
[V:2] x8 [|] 
[V:1] g/a/g/^f/g/a/b/c'/b/a/b/c'/d'/c'/b/a/ [|] 
[V:2] x8 [|] 
[V:1] g/a/g/^f/g/a/b/c'/b/a/b/c'/d'/e'/d'/^c'/d'/e'/=f'/e'/d'/=c'/ [|] 
[V:2] x8x2 x [|] 
[V:1] b/c'/b/a/b/c'/d'/e'/d'/^c'/d'/e'/f'/e'/d'/=c'/ [|] 
[V:2] x8 [|] 
[V:1] b/c'/^c'/d'/f/g/^g/a/d/_e/=e/f/B/=c/^c/d/ [|] 
[V:2] x8 [|] 
[V:1] =G/^G/A/^A/B/=c/^c/d/^d/e/f/^f/g/^g/ [|] 
[V:2] x4x2 x [|] 
[V:1] .b2.a2.=g2.=f2.e2.d2 [I:setbarnb 91]| 
[V:2] x12[K:clef=bass] | 
[V:1] !trill!c8>{/Bc}e8-e3/c/ | 
[V:2] !wedge![C,E,]!wedge![E,G,]!wedge![G,C]!wedge![E,G,]!wedge![C,E,]!wedge![E,G,] !wedge![C,E,]!wedge![E,G,]!wedge![G,C]!wedge![E,G,]!wedge![C,E,]!wedge![E,G,] !wedge![C,E,]!wedge![E,G,]!wedge![G,C]!wedge![E,G,]!wedge![C,E,]!wedge![E,G,] | 
[V:1] G6-G4.^F.G .^G.A._B.=B.c.^c | 
[V:2] !wedge![C,E,]!wedge![E,G,]!wedge![G,C]!wedge![E,G,]!wedge![C,E,]!wedge![E,G,] !wedge![C,E,]!wedge![E,G,]!wedge![G,C]!wedge![E,G,]!wedge![C,E,]!wedge![E,G,] !wedge![C,E,]!wedge![E,G,]!wedge![G,C]!wedge![E,G,]!wedge![C,E,]!wedge![E,G,] | 
[V:1] !trill!d8>{/^c/d/}g8-g/>f/e//d//=c//B// | 
[V:2] !wedge![B,,F,]!wedge![F,G,]!wedge![G,D]!wedge![F,G,]!wedge![B,,F,]!wedge![F,G,] !wedge![B,,F,]!wedge![F,G,]!wedge![G,D]!wedge![F,G,]!wedge![B,,F,]!wedge![F,G,] !wedge![B,,F,]!wedge![F,G,]!wedge![G,D]!wedge![F,G,]!wedge![B,,F,]!wedge![F,G,] | 
[V:1] A2G4-G4.G.A ._B.=B.c.^c.d.^d | 
[V:2] !wedge![B,,F,]!wedge![F,G,]!wedge![G,D]!wedge![F,G,]!wedge![B,,F,]!wedge![F,G,] !wedge![B,,F,]!wedge![F,G,]!wedge![G,D]!wedge![F,G,]!wedge![B,,F,]!wedge![F,G,] !wedge![G,,F,]!wedge![F,G,]!wedge![G,B,]!wedge![F,G,]!wedge![G,,F,]!wedge![F,G,] | 
[V:1] (11:8:33e//f//e//^d//e//c//B//c//c'//b//c'// f//g//f//e//f//c//B//c//c'//b//c'// g//a//g//^f//g//c//B//c//c'//b//c'// | 
[V:2] !wedge![C,E,]!wedge!G,!wedge!C!wedge!G,!wedge!E,!wedge!C, !wedge!A,,!wedge!A,!wedge!C!wedge!A,!wedge!F,!wedge!C, !wedge!E,,!wedge!G,!wedge!C!wedge!G,!wedge!E,!wedge!C, | 
[V:1] .^ga2a2a2a2a2a- ae{/=g}fefd | 
[V:2] !wedge!F,,!wedge![F,A,]!wedge![A,C]!wedge![F,A,]!wedge![A,C]!wedge![F,A,] !wedge!F,,!wedge![F,A,]!wedge![A,^C]!wedge![F,A,]!wedge![A,C]!wedge![F,A,] !wedge!F,,!wedge![F,A,]!wedge![A,D]!wedge![F,A,][A,D]!wedge![F,A,] | 
[V:1] c/d/c/B/ z/ c/z/d/z/e/z/f/z/g/z/a/z/b/z/c'/z/d'/z/e'/ {/d'/e'/} !sfz!f'2 z2 B2 | 
[V:2] !wedge!G,,!wedge![G,C]!wedge![CE]!wedge![G,C]!wedge![CE]!wedge![G,C] !wedge![CE]!wedge![G,C]!wedge![CE]!wedge![G,C]!wedge![CE]!wedge![G,C] !wedge!G,,!wedge![G,D]!wedge![DF]!wedge![G,D]!wedge![DG]!wedge![G,D] | 
[V:1] .[E2c2]G2F2 E2D2C2 B,CB,CDC | 
[V:2] [C,2C2] z2 z2z4z2z4z2 | 
[V:1] z4z4<^F4!trill!=F6 & !trill!C12B,6{/E/F/} | 
[V:2] !wedge!D,,2!wedge!D,2!wedge!A,2 !wedge!D,,2!wedge!D,2!wedge!A,2 G,,2!wedge!D,2!wedge!G,2 | 
[V:1] z4z4<E4!trill!F6 & !trill!_B,12A,6{/E/F/} | 
[V:2] !wedge!C,,2!wedge!C,2!wedge!G,2 !wedge!C,,2!wedge!C,2!wedge!G,2 !wedge!F,,2!wedge!C,2!wedge!F,2 | 
[V:1] !trill!A2 !trill!c2 !trill!f2 {/e/f/} !wedge![f2a2]!sfz![a4c'4]-[a2c'2][gb][fa][eg][df] & F2{/^G/A/}A2{/=B/c/}c2x12 | 
[V:2] !wedge!F,,2!wedge![F,2A,2]!wedge![A,2C2] .F,,2!wedge![F,2A,2]!wedge![A,2C2] !wedge!F,,2!wedge![F,2A,2]!wedge![A,2D2] | 
[V:1] !wedge![ce][B^d][ce][d^f][eg][ce] z [Bd][ce][df][eg][ce] z [^A^c][B=d][ce][d=f][Bd] | 
[V:2] !wedge!G,,2!wedge![G,2C2][C2E2] !wedge!G,,2!wedge![G,2C2]!wedge![C2E2] !wedge!G,,2!wedge![G,2D2]!wedge![D2F2] | 
[V:1] =c2 z2 z2z4z2z4z2 | 
[V:2] [C,,2C,2] G,2F,2 E,2D,2C,2 B,,C,B,,C,D,C, | 
[V:1] z2 !wedge!^F2!wedge!A2 !wedge!d2!wedge!^f2!wedge!a2!trill![g6d'6]{/^c'/d'/} | 
[V:2] !trill!C,12{/B,,/C,/}B,,6 | 
[V:1] z2 !wedge!E2!wedge!G2 !wedge!c2!wedge!e2!wedge!g2!trill![f6c'6]{/b/c'/} | 
[V:2] !trill!_B,,12{/A,,/B,,/}A,,6 | 
[V:1] !wedge![ac'][a2f'2][a2f'2][af']- [af'][a2f'2][a2f'2][af']- [af'][a2f'2][g2e'2][fd'] | 
[V:2] F,,2A,,2C,2 F,2A,2^C2 D2E2F2 & F,,6F,6-F,6 | 
[V:1] !wedge![ec'][^d^f][eg][^Fd][Ge][Ec][K:clef=bass] z [^DF][EG][^F,D][G,E][E,C] z [^CE][=D=F][E,C][=F,D][D,B,] | 
[V:2] [G,4G4]z2[G,,4G,4]z2[G,,,4G,,4]z2 | 
[V:1] [E,C]G,E,G,E,G, E,G,E,G,E,G, E,G,E,G,E,G, | 
[V:2] !trill!C,,8>{/B,,,/C,,/}E,,8-E,,3/C,,/ | 
[V:1] B,2D2F2- F2E2D2 C2B,2D2 & F,G,F,G,F,G, F,G,F,G,F,G, F,G,F,G,F,G, | 
[V:2] G,,,12-G,,,6 | 
[V:1] [E,C]G,E,G,E,G, E,G,E,G,E,G, E,G,E,G,E,G, | 
[V:2] !trill!C,,6{/B,,,/C,,/}!trill!E,,6{/D,,/E,,/}G,,4-G,,/F,,//E,,//D,,//C,,//B,,,//A,,,// | 
[V:1] B,2D2F2- F2E2D2 C2B,2D2 & F,G,F,G,F,G, F,G,F,G,F,G, F,G,F,G,F,G, | 
[V:2] !sfz!_A,,,2G,,,4-G,,,12 | 
[V:1] C2x4B,2!sfz!F4-F2D2B,2 & E,G,E,G,E,G, F,G,F,G,F,G, F,G,F,G,F,G, | 
[V:2] C,,2G,,2- G,,/F,,//E,,//D,,//C,,//B,,,//A,,,// !sfz!_A,,,2G,,,4-G,,,6 | 
[V:1] C2x4B,2!sfz!F4-F2EDCB, & E,G,E,G,E,G, F,G,F,G,F,G, F,G,F,G,F,G, | 
[V:2] C,,2G,,2- G,,/F,,//E,,//D,,//C,,//B,,,//A,,,// !sfz!_A,,,2G,,,4-G,,,6 | 
[V:1] D12-D2D2D2 & z F,2F,2F,- F,F,2F,2F,- F,F,2F,2F,- | 
[V:2] z2 G,,2_A,,2 =A,,2^G,,2A,,2 _B,,2A,,2B,,2 & C,,12-C,,6 | 
[V:1] D6C4z2z4z2[K:clef=treble] & F,F,2F,2F,E,4z2z4z2 | 
[V:2] =B,,2=G,,2A,,B,,C,4z2z4z2 & C,,6-C,,4z2z4z2 | 
[V:1] [D6F6][C4E4]z2z4z2 & z G,2G,2G,-G,4z2z4z2 | 
[V:2] B,,2G,,2 A,,B,,C,4z2z4z2 & C,,6-C,,4z2z4z2 | 
[V:1] [F6A6][E6G6][B,6F6] & z G,2G,2G,- G,G,2G,2G,- G,G,2G,2G, | 
[V:2] B,,2G,,2 A,,B,, C,2G,,2 B,,C, D,2G,,2 ^C,D, & C,,12-C,,6 | 
[V:1] [G,6-B,6F6][G,CE]B,C^DE^F GBc^de.g | 
[V:2] D,6C,4z2z4z2[K:clef=treble] & C,,6-C,,4z2z4z2 | 
[V:1] [f6b6][e4c'4]z2z4z2 |]  
[V:2] [G6d6][C4c4]z2z4z2 |]  


